X:010
T:Rabbit Stew
C:Trad
M:2/4
L:1/16
E:14
Z:Quebecois Reel
K:G
|:&quot;G&quot; BcBA GFGB|&quot;D7&quot;d2B2 A4|ABcB ABcd|e2f2
e2d2|&quot;G&quot;BcBA GFGB|\
&quot;D7&quot;d2B2 A4|ABcB ABcd|edef g4::&quot;G&quot;g2B2
d2ef|g2B2 d4|d3d d2d2|\
edef edef|g2B2 d2ef|g2B2 d4|d3d d2d2|edef g4:|**
\vskip 0.3in
